images/SAND.svg

<svg height="250" viewBox="0 0 250 250" width="250" xmlns="http://www.w3.org/2000/svg" xmlns:xlink="http://www.w3.org/1999/xlink"><linearGradient id="a" gradientTransform="matrix(250 0 0 -250 -6250 256250)" gradientUnits="userSpaceOnUse" x1="25.214399" x2="25.8374" y1="1024.822266" y2="1024.119263"><stop offset="0" stop-color="#00adef"/><stop offset="1" stop-color="#0084ff"/></linearGradient><path d="m250 125c0 69.035156-55.964844 125-125 125s-125-55.964844-125-125 55.964844-125 125-125 125 55.964844 125 125zm0 0" fill="url(#a)"/><path d="m83 59-13.5 13.5v53.5l13.5 13.5h53.5v27h-26.5v-13.5h-40.5v27l13.5 13.5h80.5l13.5-13.5v-54l-13.5-13.5h-53.5v-27h27v13.5h40.5v-27l-13.5-13.5h-81zm0 0" fill="#fff"/></svg>

<svg xmlns="http://www.w3.org/2000/svg" width="250" height="250"><linearGradient id="a" x1="25.214" x2="25.837" y1="1024.822" y2="1024.119" gradientTransform="matrix(250 0 0 -250 -6250 256250)" gradientUnits="userSpaceOnUse"><stop offset="0" stop-color="#00adef"/><stop offset="1" stop-color="#0084ff"/></linearGradient><path fill="url(#a)" d="M250 125c0 69.035-55.965 125-125 125S0 194.035 0 125 55.965 0 125 0s125 55.965 125 125zm0 0"/><path fill="#fff" d="M83 59 69.5 72.5V126L83 139.5h53.5v27H110V153H69.5v27L83 193.5h80.5L177 180v-54l-13.5-13.5H110v-27h27V99h40.5V72L164 58.5H83zm0 0"/></svg>
